email-lock.svg

<svg fill="currentColor" viewBox="0 0 24 24"><path d="M12 18.2c0-.96.5-1.86 1.2-2.46v-.24c0-2.44 2.2-4.5 4.8-4.5 1.65 0 3.13.83 4 2.06V6a2 2 0 0 0-2-2H4c-1.11 0-2 .89-2 2v12a2 2 0 0 0 2 2h8zM4 6l8 5 8-5v2l-8 5-8-5zm16.8 11v-1.5c0-1.4-1.4-2.5-2.8-2.5s-2.8 1.1-2.8 2.5V17c-.6 0-1.2.6-1.2 1.2v3.5c0 .7.6 1.3 1.2 1.3h5.5c.7 0 1.3-.6 1.3-1.2v-3.5c0-.7-.6-1.3-1.2-1.3m-1.3 0h-3v-1.5c0-.8.7-1.3 1.5-1.3s1.5.5 1.5 1.3z"/></svg>

<svg  viewBox="0 0 24 24" fill="currentColor"><path  d="M12 18.2C12 17.24 12.5 16.34 13.2 15.74V15.5C13.2 13.06 15.4 11 18 11C19.65 11 21.13 11.83 22 13.06V6C22 4.89 21.1 4 20 4H4C2.89 4 2 4.89 2 6V18C2 19.11 2.9 20 4 20H12V18.2M4 6L12 11L20 6V8L12 13L4 8V6M20.8 17V15.5C20.8 14.1 19.4 13 18 13S15.2 14.1 15.2 15.5V17C14.6 17 14 17.6 14 18.2V21.7C14 22.4 14.6 23 15.2 23H20.7C21.4 23 22 22.4 22 21.8V18.3C22 17.6 21.4 17 20.8 17M19.5 17H16.5V15.5C16.5 14.7 17.2 14.2 18 14.2S19.5 14.7 19.5 15.5V17Z"/></svg>
